X: 1
T: Longfield, The
M: 6/8
L: 1/8
R: jig
K: Dmaj
G2B BAG | FAA AFD | DBB Bcd | AFD E2D |
DBB BAF | FAA AFD | DBB Bcd | AFD E2D :|
faa efg | fef dBA |  faa efg | fdd d2e |
faa efg | fef dBA | GAG GBd | AFD E2D :|
